X:1
T:Title
%%score 1 2 3 4
L:1/8
M:6/8
K:C
V:1 treble nm="Choir Aahs"
V:2 treble nm="Choir Aahs"
V:3 treble nm="Choir Aahs"
V:4 bass nm="Choir Aahs"
V:1
 G | cde c2 e | cBA G2 B | c2 d e2 c | d2 B c2 c | A2 A G2 G | A>Bc B>cd | c2 A G2 B | cde G2 B | %9
 cGF E2 D | C2 G A>Bc | B2 A G2 B | c>de dcB | c6 |[M:1/4] c2 |[M:4/4] d2 e2 d2 c2 | f2 e2 d2 B2 | %17
 c2 G2 cd/e/ f2 | e2 d2 c4 |] %19
V:2
 z | z6 | z6 | z6 | z6 | z6 | z6 | z6 | z6 | z6 | z6 | z6 | z6 | z6 |[M:1/4] e2 | %15
[M:4/4] f2 g2 g2 g2 | g2 a2 g2 g2 | g2 g2 g2 a2 | g2 g2 e4 |] %19
V:3
 z | z6 | z6 | z6 | z6 | z6 | z6 | z6 | z6 | z6 | z6 | z6 | z6 | z6 |[M:1/4] C2 | %15
[M:4/4] B,2 C2 B,2 CD/E/ | DC C2 B,2 D2 | E2 ED C2 CD | C2 B,2 C4 |] %19
V:4
 C, | C,2 C, G,2 C, | C,2 D, G,,2 G,, | C,2 G,, C,2 E,/F,/ | G,2 G,, C,2 C, | C,2 C, C,2 C, | %6
 C,3 G,,3 | C,2 D, G,,2 G,, | C,2 C, C,2 D, | E,2 F, G,2 G,, | C,2 C, C,3 | D,2 D, G,,2 G,, | %12
 F,2 E, G,2 G,, | C,6 |[M:1/4] C2 |[M:4/4] G,2 C,2 G,2 E,2 | F,2 A,,2 G,2 G,2 | C,2 C,2 C2 F,2 | %18
 G,2 G,,2 C,4 |] %19

